X:1
T:Rosmore, 65.65 D refrain
T:Henry Gough Trembath, 1893
T:Rosmore, 65.65 D refrain
T:Public Domain
C:Henry Gough Trembath, 1893
Z:Public Domain
%%score ( 1 2 ) ( 3 4 )
L:1/8
M:4/4
K:Ab
V:1 treble 
V:2 treble 
V:3 bass 
V:4 bass 
V:1
 [Ec]2 [EA]2 E2 [EF]2 | (G3 A) [EG]4 | [Ed]2 [EB]2 [DG]2 [DF]2 | [CE]8 | [Ec]2 [EA]2 E2 [EF]2 | %5
 (A3 A) [EG]4 | [=Dc]2 [DB]2 [DA]2 (GF) | E8 | [GB]2 [GB]2 [^Fc]2 [GB]2 | (d3 B) F4 | %10
 [FA]2 [FA]2 [=EB]2 [FA]2 | [Ec]8 | [=Ec]2 [Ed]2 [Ec]2 [EG]2 | (G2 F2) (E2 E2) | %14
 [=DA]3 [DA] [DG]2 [DF]2 | E8 | E2 [EF]2 [EG]2 [EA]2 | (=A2 B2) [Ee]4 | E2 [EF]2 [EG]2 [EA]2 | %19
 (c4 B4) | [Dd]3 [Dd] [Ec]2 [EB]2 | (e3 c) [CA]4 | [FB]2 (cd) (G2 E)[EA] | [EA]8 |] %24
V:2
 x8 | E4 x4 | x8 | x8 | x4 E2 x2 | E4 x4 | x6 =D2 | x8 | x8 | F4 x4 | x8 | x8 | x8 | B4 A4 | x8 | %15
 x8 | E2 x6 | E4 x4 | E2 x6 | =D8 | x8 | E4 x4 | x2 F2 B3 x | x8 |] %24
V:3
 [A,,A,C]2 [E,,E,C]2 [A,,A,C]2 [E,,E,C]2 | ([B,,B,]2 [E,,E,]2) (B,,2 E,,2) | %2
 [G,,G,B,]2 [E,,E,G,]2 [B,,B,]2 [G,,G,B,]2 | (A,,2 E,,2 G,,2 E,,2) | [A,C]2 [E,C]2 [A,C]2 [=A,C]2 | %5
 B,4 B,4 | [B,,A,]2 [B,,F,]2 [B,,C]2 (B,A,) | [E,G,]8 | [E,B,]2 [E,B,]2 [E,=A,]2 [E,B,]2 | %9
 (B,2 D2) [B,D]4 | [D,D]2 [D,A,]2 [D,G,]2 [D,A,]2 | [A,,A,]8 | [G,B,]2 [G,B,]2 [C,G,]2 [C,C]2 | %13
 [E,C]4 [A,C]4 | B,,2 z C [B,,B,]2 [B,,A,]2 | ([E,G,]2 [F,A,]2 B,2 =B,2) | %16
 [A,,A,C]2 [E,,E,C]2 [A,,A,C]2 [E,,E,C]2 | ([G,,G,]2 [E,,E,]2) (G,,2 E,,2) | %18
 [A,C]2 [A,C]2 [G,B,]2 [G,B,]2 | [F,,F,A,]8 | [_F,A,]3 [F,A,] [E,A,]2 [D,G,]2 | [C,A,]4 [F,A,]4 | %22
 [D,D]2 [B,,D]2 [E,D]3 [A,,C] | [A,,C]8 |] %24
V:4
 x8 | D4 [B,D]4 | x8 | [A,C]8 | x8 | B,4 B,4 | x6 B,,2 | x8 | x8 | B,,4 x4 | x8 | x8 | x8 | x8 | %14
 C3 B,,2 x3 | x4 G,4 | x8 | D4 [G,D]4 | x8 | x8 | x8 | x8 | x8 | x8 |] %24

